app/assets/v2/images/avatar/HairStyle/womanhair5-8E2ABE.svg

<svg xmlns="http://www.w3.org/2000/svg" style="isolation:isolate" width="899.2" height="1499.2"><defs><clipPath id="a"><path d="M0 0h899.2v1499.2H0z"/></clipPath></defs><g clip-path="url(#a)"><path d="M819.5 1021c11.4 0 20.4-9.7 19.5-21.1l-49.3-625c-4.5-131-100.2-209.2-189-253.7-94.8-47.6-207.5-47.6-302.3 0-88.7 44.4-184.4 122.6-188.9 253.6l-49.3 625c-.9 11.4 8.1 21.1 19.5 21.1H209c10.8 0 19.6-8.8 19.6-19.6V485.8c0-33.2 26.9-60 60-60h322c33.2 0 60 26.9 60 60v515.5c0 10.8 8.8 19.6 19.6 19.6h129.3v.1z" fill="#8E2ABE" vector-effect="non-scaling-stroke" stroke-width="26.9" stroke="#000" stroke-miterlimit="10"/></g></svg>

<?xml version="1.0" standalone="no"?><!-- Generator: Gravit.io --><svg xmlns="http://www.w3.org/2000/svg" xmlns:xlink="http://www.w3.org/1999/xlink" style="isolation:isolate" viewBox="0 0 899.2 1499.2" width="899.2" height="1499.2"><defs><clipPath id="_clipPath_dfQYk2viTrlqvx1ba7J3rbTRXdXLXLmn"><rect width="899.2" height="1499.2"/></clipPath></defs><g clip-path="url(#_clipPath_dfQYk2viTrlqvx1ba7J3rbTRXdXLXLmn)"><path d=" M 819.5 1021 C 830.9 1021 839.9 1011.3 839 999.9 L 789.7 374.9 C 785.2 243.9 689.5 165.7 600.7 121.2 C 505.9 73.6 393.2 73.6 298.4 121.2 C 209.7 165.6 114 243.8 109.5 374.8 L 60.2 999.8 C 59.3 1011.2 68.3 1020.9 79.7 1020.9 L 209 1020.9 C 219.8 1020.9 228.6 1012.1 228.6 1001.3 L 228.6 485.8 C 228.6 452.6 255.5 425.8 288.6 425.8 L 449.6 425.8 L 610.6 425.8 C 643.8 425.8 670.6 452.7 670.6 485.8 L 670.6 1001.3 C 670.6 1012.1 679.4 1020.9 690.2 1020.9 L 819.5 1020.9 L 819.5 1021 Z " fill="rgb(142,42,190)" vector-effect="non-scaling-stroke" stroke-width="26.9" stroke="rgb(0,0,0)" stroke-linejoin="miter" stroke-linecap="butt" stroke-miterlimit="10"/></g></svg>
